X: 31115
T: Paddy Fahey's
R: reel
M: 4/4
K: Emajor
BA|:GE ~E2 GBAF|GEGB AF=DF|GE ~E2 GABe|defd ed BA|
GE (3EEE GBAF|GEGB AFBA|GE (3EEE GABe|defd e2 ef:|
|:gefd Beee|=dBAF =DFAa|gefd edBA|Beed e2 ef|
gefd Beee|=dBAF =DFAA|GE ~E2 GABe|defd e2 ef:|

